X:148
T:Penny Dancing* (sj)
B:NFID.160c  ("untitled slip jig")
148penny
S:F&MB
L:1/8
M:9/8
R:slip jig
Q:300
K:G
AAG FEF G2B|A2G E2G cAG|AAG FEF G2A|deg fed cAG:|
A>dd d^cd f3|Ade ded cAG|A>dd d^cd f2g|agf ged ^cAG:|

%%%

